svg/fluentui-system-icons/ic_fluent_text_footnote_20_filled.svg

<svg width="20" height="20" viewBox="0 0 20 20" fill="none" xmlns="http://www.w3.org/2000/svg">
<path d="M17.3095 3.00007C17.6959 3.03041 18 3.35356 18 3.74774V9.2501C18 9.66431 17.6642 10.0001 17.25 10.0001C16.8358 10.0001 16.5 9.66431 16.5 9.2501V6.11312C16.3986 6.19447 16.2945 6.27086 16.1886 6.34151C15.8439 6.57128 15.3783 6.47815 15.1485 6.1335C14.9187 5.78885 15.0119 5.3232 15.3565 5.09344C15.9731 4.68235 16.4201 4.03115 16.5171 3.58751C16.5601 3.39107 16.6764 3.2296 16.8311 3.12557C16.9025 3.07737 16.9827 3.04115 17.0687 3.01979C17.146 3.00052 17.2271 2.99338 17.3095 3.00007ZM10.1996 15.0705C10.0611 14.9194 10 14.7298 10 14.5243V6.60745C10 6.38893 10.0656 6.1891 10.2123 6.03017L10.2158 6.02642C10.3671 5.86907 10.5613 5.79152 10.7794 5.79152C10.9967 5.79152 11.1904 5.86872 11.3387 6.0283C11.4898 6.18652 11.5588 6.38692 11.5588 6.60745V8.95512C11.7022 8.81498 11.8628 8.69264 12.0404 8.58853L12.0415 8.5879C12.4393 8.35735 12.8827 8.24386 13.3656 8.24386C14.2365 8.24386 14.9535 8.57319 15.4937 9.2295C16.0308 9.88194 16.287 10.7365 16.287 11.7677C16.287 12.8027 16.0309 13.6593 15.4937 14.312C14.9525 14.9651 14.2285 15.2915 13.3474 15.2915C12.8536 15.2915 12.4038 15.1786 12.005 14.9475L12.0039 14.9469C11.8217 14.84 11.6567 14.7133 11.5091 14.5673C11.5001 14.76 11.4294 14.9338 11.2909 15.0723C11.1422 15.221 10.9527 15.2915 10.7429 15.2915C10.5366 15.2915 10.3474 15.2251 10.2032 15.0744L10.1996 15.0705ZM12.0094 13.3096C12.3079 13.6816 12.6789 13.8605 13.1405 13.8605C13.6281 13.8605 13.9952 13.6834 14.2693 13.3308C14.5497 12.9659 14.7039 12.4538 14.7039 11.7677C14.7039 11.0857 14.5498 10.5753 14.2689 10.2102C13.9944 9.85341 13.6274 9.67489 13.1405 9.67489C12.6796 9.67489 12.3086 9.85519 12.0097 10.2314C11.7126 10.6064 11.5527 11.1108 11.5527 11.7677C11.5527 12.4288 11.7127 12.9349 12.0094 13.3096ZM1.75 14.5167C1.75 14.7284 1.83467 14.9122 1.99273 15.0524L2.00059 15.0591C2.16224 15.191 2.35831 15.25 2.57107 15.25C2.75178 15.25 2.92128 15.2022 3.06448 15.0939C3.2055 14.9873 3.302 14.8359 3.36461 14.6627L4.10969 12.6375H7.38444L8.13539 14.6627L8.13578 14.6638C8.19839 14.8369 8.29456 14.9873 8.43552 15.0939C8.57872 15.2022 8.74822 15.25 8.92893 15.25C9.1414 15.25 9.33811 15.1907 9.49727 15.0556C9.66023 14.9166 9.75 14.732 9.75 14.5167C9.75 14.392 9.71519 14.2568 9.66359 14.1212L6.71293 6.43619C6.63263 6.2281 6.51396 6.05266 6.34683 5.93001C6.17799 5.8061 5.97861 5.75002 5.76269 5.75002C5.53889 5.75002 5.33239 5.80522 5.15781 5.92933C4.98412 6.05281 4.86141 6.2309 4.78038 6.44321L1.83612 14.1219C1.78453 14.2576 1.75 14.392 1.75 14.5167ZM6.8777 11.2014H4.6223L5.75 8.10405L6.8777 11.2014Z" fill="#212121"/>
</svg>

<svg xmlns="http://www.w3.org/2000/svg" width="20" height="20"><path d="M17.31 3a.75.75 0 0 1 .69.748V9.25a.75.75 0 0 1-1.5 0V6.113a4.405 4.405 0 0 1-.311.229.75.75 0 0 1-.832-1.249c.616-.41 1.063-1.062 1.16-1.505A.747.747 0 0 1 17.31 3ZM10.2 15.07a.786.786 0 0 1-.2-.546V6.607a.83.83 0 0 1 .212-.577l.004-.004a.76.76 0 0 1 .563-.234.74.74 0 0 1 .56.236c.15.159.22.359.22.58v2.347c.143-.14.304-.262.481-.366l.002-.001c.397-.23.84-.344 1.324-.344.87 0 1.588.33 2.128.986.537.652.793 1.506.793 2.538 0 1.035-.256 1.891-.793 2.544-.541.653-1.265.98-2.147.98-.493 0-.943-.113-1.342-.345h-.001a2.499 2.499 0 0 1-.495-.38.745.745 0 0 1-.766.724.723.723 0 0 1-.54-.217l-.003-.004Zm1.81-1.76c.298.372.669.55 1.13.55.488 0 .855-.177 1.13-.53.28-.364.434-.876.434-1.562 0-.682-.154-1.193-.435-1.558-.275-.357-.642-.535-1.129-.535-.46 0-.831.18-1.13.556-.297.375-.457.88-.457 1.537 0 .66.16 1.167.456 1.542ZM1.75 14.517c0 .211.085.395.243.535L2 15.06a.88.88 0 0 0 .57.191.8.8 0 0 0 .493-.156.917.917 0 0 0 .3-.431l.746-2.026h3.274l.751 2.026a.915.915 0 0 0 .3.43.8.8 0 0 0 .494.157.86.86 0 0 0 .568-.194.69.69 0 0 0 .253-.54c0-.124-.035-.26-.086-.395l-2.95-7.686a1.102 1.102 0 0 0-.366-.506.966.966 0 0 0-.584-.18c-.224 0-.43.055-.605.18a1.088 1.088 0 0 0-.378.513l-2.944 7.679a1.14 1.14 0 0 0-.086.395ZM6.878 11.2H4.622L5.75 8.104l1.128 3.097Z"/></svg>
